X: 1
T: Another Jig Will Do
C: J-15
C: Irish
M: 9/8
Z: Transcribed to abc by Mary Lou Knack
R: slipjig
% %staffwidth 14cm
K: D
"D"ABA A2G F2G| ABA AGF "C"GGG| "D"ABA A2G F2G| A2d "A"d2c "D"ddd:|
|:\
"D"A2g f2d "A"e2c| "C"A2B =c2d ccc| "D"A2g f2d "A"e2c| "D"A2d "A"d2c "D"ddd|
"D"A2g f2d "A"e2c| "C"A2B =c2d ccc| "D"d2A A2G "A"F2G| "D"A2d "A"d2c "D"ddd:|
%%text 9/1/98
